X: 187
T:Och! mar tha mi
T:How sad am I
S:Jane Fraser Morison's Book 1, c. 1882
M:3/4
L:1/8
Q:1/4=90
K:F
C>D F2 F2|GA d2 c2|FG A2 cA|GF {F}D2 F2 |
FC  D2 F2|GA c2 cc|df d2 Ac|A>G   F2 F2|]

This is a pipe march very popular on the Scottish session scene:

